svg/u1fac0.svg

<svg viewBox="0 0 128 128" xmlns="http://www.w3.org/2000/svg">
  <path d="M14.77,37.29c0,0-1.13,1.31-1.88,3.75c-0.75,2.44-0.42,4.93-0.42,4.93s3.77,1.97,10.07,2.25 c5.19,0.23,7.95-0.7,11.9-3.59s10.66,1.76,13.69,3.17c3.03,1.41,30,11.83,30,11.83l19.62,1.22c0,0,0.75-2.16,0-7.32 s-5.44-9.29-9.1-10.79c-3.66-1.5-6.01-1.69-6.01-1.69L58.69,26.97c0,0-6.6-0.46-13.33,1.03C40.3,29.13,29.6,38.89,23.4,38.7 S14.77,37.29,14.77,37.29z" fill="#D43330"/>
  <path d="M58.64,20.82l-2.6-13.91c0,0,1.24-1.91,3.73-2.33s4.36,0.8,4.36,0.8l2.35,16.1h1.88l1.78-14.55 c0,0,1.03-1.22,4.18-0.73c2.91,0.46,3.39,1.77,3.39,1.77l-1.6,14.96l-16.8,7.09l-7.41-0.89l-9.34-13.66c0,0,0.28-2.3,2.58-3.61 s3.94-1.08,3.94-1.08l8.92,13l0.8-0.8L58.64,20.82z" fill="#F44236"/>
  <path d="M74.83,42.31c0,0,2.04-1.08,4.46-1.31s3.33,0.05,3.33,0.05s3.5-4.58,0-12.74S67.79,18.03,61.6,20.07 s-13.87,6.9-14.71,16.75c-0.84,9.85-1.13,14.92-1.13,14.92l5.98,3.1l23.49-3.68L74.83,42.31z" fill="#F44236"/>
  <path d="M68.17,27.18c0,0,1.83,0.84,4.97-0.28c3.75-1.34,10.7-3.31,13.37-4.58c2.67-1.27,4.93-3.66,6.48-4.08 c1.55-0.42,5.39-0.21,7.22,3.59c1.83,3.8-1.45,7.11-1.45,7.11l-17.18,4.22l-6.34,6.9l-1.55,6.9v5.91l28.56,21.83 c0,0,0.44,7.31-3.5,18.57S91.3,112,89.76,114.82s-1.47,6.34-5.52,8.02c-4.05,1.69-12.22-2.67-21.65-6.76 c-9.43-4.08-21.4-11.68-26.04-17.74s-8.59-12.39-9.71-21.82s3.1-19.15,7.74-21.68c4.65-2.53,15.63-1.97,15.63-1.97 s0.64-1.27,5.03-2.67s7.35-1.83,7.35-1.83l-1.13-7.46l0.79-8.51L68.17,27.18z" fill="#D43330"/>
  <path d="M80.61,56.95c0,0,3.66-3.52,9.01-2.96s10.5,6.19,11.76,10.98c1.27,4.79,1.24,11.17,0,15.77 c-1.08,4.03-6.09,14.08-12.75,14.08c-3.1,0-4.03-2.48-4.24-3.63c-0.21-1.16,1.61,7.85-2.94,9.68c-4.33,1.74-3.75-1.13-3.75-1.13 l1.92-4.5c0,0-8.21-14.9-12.01-19.55c-3.8-4.65-15.58-13.96-15.16-18.32c0.42-4.36,1.55-6.19,5.77-7.04c4.22-0.84,9.29,0,9.29,0 l8.06,4.09L80.61,56.95z" fill="#FE5F5F"/>
  <path d="M50.9,65.35c0,0-2.44,4.32-5.73,0c-3.28-4.32-6.01-8.35-5.73-17.64c0.28-9.29,0.75-13.98-0.47-18.86 c-1.22-4.88-1.61-7.68-1.61-7.68l-3.27,3.09l-3.11,0.74l-2.06-1.12c0,0-1.78,0.28-1.12,1.03s3.09,3.95,4.12,6 c1.36,2.72,2.72,11.92-0.12,17.55c-3.42,6.79-4.58,12.39-3.75,18.12c0.62,4.27,5.22,9.76,5.22,9.76l3.42,2.44l7.7-0.66l6.01-6.29 L50.9,65.35z" fill="#FF6A65"/>
  <path d="M36.45,16.03c-3.05-0.45-7.36,1.74-8.62,4.65c-1.18,2.7-0.57,5.58,2.88,5.02 c3.45-0.56,5.2-2.4,5.84-2.96s2.41,6.06,2.82,10c0.42,3.94,0.06,13.04,0,16.26c-0.08,4.41,1.18,16.02,5.2,18.36 c2.8,1.63,4.97-0.55,6.8-0.79l-0.75-6.17l-2.96-9.22c0,0-0.31-0.4-1.08-2.35c-0.77-1.95-0.82-14.92-2.23-21.52 C43.45,23.1,40.47,16.63,36.45,16.03z" fill="#FF8F8C"/>
  <path d="M95.81,20.84c-0.57,0.89-0.49,4.22-0.49,4.22s-8.8,2.65-12.95,4.95c-4.15,2.3-8.76,5.79-10.1,11.35 s0.49,9.39,0.49,9.39s-2.73-1.26-4.97-2.04c-1.92-0.67-3.78-1.06-3.78-1.06s-0.16-4.36-0.51-5.7c-0.35-1.34-1.2-2.89-1.2-4.58 s1.01-4.72,2.35-6.57c1.2-1.66,3.92-3.49,3.92-3.49s-0.14-0.2-1.22-0.24c-2.23-0.1-5.26,2.35-6.66,6.01 c-1.41,3.66-0.77,9.19-0.7,11.61c0.05,1.62,0.14,3.23,0.14,3.23s-2.82,0.36-4.89,0.93c-2.08,0.56-5.6,3.1-5.6,3.1 s-1.13-0.8-1.9-1.99c-0.75-1.16-1.61-4.19-1.61-4.19s0.48,6.05,1.61,9.07c1.13,3.03,2.96,10.31,2.04,14.08 c-1.27,5.21-4.97,8.05-9.34,8.12s-7.59-2.79-9.48-6.19c-1.41-2.55-3.12-8.72-3.12-8.72s-0.67,2.46-0.57,4.61 c0.1,2.15,1.13,7.28,5.4,10.7c3.78,3.03,6.69,2.95,8.94,2.81c4.15-0.26,9.27-4.39,10.46-9.6s-0.05-9.97-0.4-11.52 c-0.35-1.55-1.13-4.29-1.13-4.29s3.52-3.73,7.67-4.5c4.15-0.77,11.26,1.55,14.36,3.52c3.1,1.97,10.61,8.33,10.18,13.05 s-3.43,7.95-4.62,9.48c-1.57,2.02-3.64,3.43-3.17,4.43c0.67,1.43,2.75-0.14,4.29-1.34c1.55-1.2,3.59-3.8,4.58-5.42 c0.99-1.62,1.83-4.34,1.83-4.34s2.53,2.2,3.38,5.98c0.84,3.78-0.42,8.78,1.2,8.5c1.62-0.28,2.17-4.86,1.83-9.08 c-0.34-4.14-2.89-6.91-4.29-8.35C86.38,65.33,85.67,64,85.67,64s-2.57-6.54-5.73-9.16c-4.08-3.38-5.02-10.97-3.07-14.43 c2.54-4.51,6.11-7,10.21-7.88c5.77-1.24,8.61-1.06,11.25-1.31c2.31-0.22,3.4-2.84,3.05-5.73s-1.69-5.01-3.2-5.67 C96.96,19.28,96.16,20.3,95.81,20.84z" fill="#A62714"/>
  <path d="M39.32,79.34c0,0,2.15,6.69,2.15,9.57s-0.25,5.95-2.15,7.53c-1.89,1.57,2.43,1.76,3.74-0.51 c1.73-3.01,1.23-5.12,1.23-5.12l2.02,2.27c0,0,2.1,5.9,5.07,9.41c3.24,3.82,5.73,4.53,9.43,4.53c3.88,0,4.29-1.71,2.72-1.83 c-1.67-0.12-4.99-0.18-7.32-1.66c-2.32-1.48-3.45-3.15-4.98-5.66c-0.69-1.13-1.97-4.27-1.97-4.27s3.18,1.41,4.36,0 c1.01-1.2-3.33-1.91-4.55-2.58c-2.06-1.13-3.19-2.96-4.15-4.78c-0.88-1.68-2.6-6.91-2.6-6.91H39.32z" fill="#A62714"/>
  <path d="M81.68,74.83c0,0,0.23,6.19-0.14,10.28c-0.38,4.08-1.17,8.07-2.82,10.7 c-1.11,1.78-3.09,3.38-3.61,4.46c-0.56,1.14,0.61,1.87,1.83,1.17s3.33-2.77,4.32-4.83c0.52-1.08,1.74-4.08,1.74-4.08 s1.27,4.93,2.06,6.34c0.8,1.41,2.02,4.32,3.28,3.75s-0.11-2.83-0.47-3.8c-0.45-1.2-1.5-4.04-2.06-6.43s-0.9-10.55-0.9-12.71 s-0.28-7.05-0.7-8.83S81.68,74.83,81.68,74.83z" fill="#A62714"/>
  <path d="M29.51,22.93c0.56,1.19,2.47,0.85,4.8-0.85c2.45-1.79,2.88-3.54,1.72-4.35 c-1.09-0.77-3.17-0.08-4.59,1.01C29.85,19.96,28.85,21.5,29.51,22.93z" fill="#F44236"/>
</svg>

<svg viewBox="0 0 128 128" xmlns="http://www.w3.org/2000/svg">
  <defs/>
  <path d="M14.77,37.29 C14.77,37.29 13.64,38.6 12.89,41.04 C12.14,43.48 12.47,45.97 12.47,45.97 C12.47,45.97 16.24,47.94 22.54,48.22 C27.73,48.45 30.49,47.52 34.44,44.63 C38.39,41.74 45.1,46.39 48.13,47.8 C51.16,49.21 78.13,59.63 78.13,59.63 L97.75,60.85 C97.75,60.85 98.5,58.69 97.75,53.53 C97,48.37 92.31,44.24 88.65,42.74 C84.99,41.24 82.64,41.05 82.64,41.05 L58.69,26.97 C58.69,26.97 52.09,26.51 45.36,28 C40.3,29.13 29.6,38.89 23.4,38.7 C17.2,38.51 14.77,37.29 14.77,37.29 Z" fill="#D43330"/>
  <path d="M58.64,20.82 L56.04,6.91 C56.04,6.91 57.28,5 59.77,4.58 C62.26,4.16 64.13,5.38 64.13,5.38 L66.48,21.48 L68.36,21.48 L70.14,6.93 C70.14,6.93 71.17,5.71 74.32,6.2 C77.23,6.66 77.71,7.97 77.71,7.97 L76.11,22.93 L59.31,30.02 L51.9,29.13 L42.56,15.47 C42.56,15.47 42.84,13.17 45.14,11.86 C47.44,10.55 49.08,10.78 49.08,10.78 L58,23.78 L58.8,22.98 L58.64,20.82 Z" fill="#F44236"/>
  <path d="M74.83,42.31 C74.83,42.31 76.87,41.23 79.29,41 C81.71,40.77 82.62,41.05 82.62,41.05 C82.62,41.05 86.12,36.47 82.62,28.31 C79.12,20.15 67.79,18.03 61.6,20.07 C55.41,22.11 47.73,26.97 46.89,36.82 C46.05,46.67 45.76,51.74 45.76,51.74 L51.74,54.84 L75.23,51.16 L74.83,42.31 Z" fill="#F44236"/>
  <path d="M68.17,27.18 C68.17,27.18 70,28.02 73.14,26.9 C76.89,25.56 83.84,23.59 86.51,22.32 C89.18,21.05 91.44,18.66 92.99,18.24 C94.54,17.82 98.38,18.03 100.21,21.83 C102.04,25.63 98.76,28.94 98.76,28.94 L81.58,33.16 L75.24,40.06 L73.69,46.96 L73.69,52.87 L102.25,74.7 C102.25,74.7 102.69,82.01 98.75,93.27 C94.81,104.53 91.3,112 89.76,114.82 C88.22,117.64 88.29,121.16 84.24,122.84 C80.19,124.53 72.02,120.17 62.59,116.08 C53.16,112 41.19,104.4 36.55,98.34 C31.91,92.28 27.96,85.95 26.84,76.52 C25.72,67.09 29.94,57.37 34.58,54.84 C39.23,52.31 50.21,52.87 50.21,52.87 C50.21,52.87 50.85,51.6 55.24,50.2 C59.63,48.8 62.59,48.37 62.59,48.37 L61.46,40.91 L62.25,32.4 L68.17,27.18 Z" fill="#D43330"/>
  <path d="M80.61,56.95 C80.61,56.95 84.27,53.43 89.62,53.99 C94.97,54.55 100.12,60.18 101.38,64.97 C102.65,69.76 102.62,76.14 101.38,80.74 C100.3,84.77 95.29,94.82 88.63,94.82 C85.53,94.82 84.6,92.34 84.39,91.19 C84.18,90.03 86,99.04 81.45,100.87 C77.12,102.61 77.7,99.74 77.7,99.74 L79.62,95.24 C79.62,95.24 71.41,80.34 67.61,75.69 C63.81,71.04 52.03,61.73 52.45,57.37 C52.87,53.01 54,51.18 58.22,50.33 C62.44,49.49 67.51,50.33 67.51,50.33 L75.57,54.42 L80.61,56.95 Z" fill="#FE5F5F"/>
  <path d="M50.9,65.35 C50.9,65.35 48.46,69.67 45.17,65.35 C41.89,61.03 39.16,57 39.44,47.71 C39.72,38.42 40.19,33.73 38.97,28.85 C37.75,23.97 37.36,21.17 37.36,21.17 L34.09,24.26 L30.98,25 L28.92,23.88 C28.92,23.88 27.14,24.16 27.8,24.91 C28.46,25.66 30.89,28.86 31.92,30.91 C33.28,33.63 34.64,42.83 31.8,48.46 C28.38,55.25 27.22,60.85 28.05,66.58 C28.67,70.85 33.27,76.34 33.27,76.34 L36.69,78.78 L44.39,78.12 L50.4,71.83 L50.9,65.35 Z" fill="#FF6A65"/>
  <path d="M36.45,16.03 C33.4,15.58 29.09,17.77 27.83,20.68 C26.65,23.38 27.26,26.26 30.71,25.7 C34.16,25.14 35.91,23.3 36.55,22.74 C37.19,22.18 38.96,28.8 39.37,32.74 C39.79,36.68 39.43,45.78 39.37,49 C39.29,53.41 40.55,65.02 44.57,67.36 C47.37,68.99 49.54,66.81 51.37,66.57 L50.62,60.4 L47.66,51.18 C47.66,51.18 47.35,50.78 46.58,48.83 C45.81,46.88 45.76,33.91 44.35,27.31 C43.45,23.1 40.47,16.63 36.45,16.03 Z" fill="#FF8F8C"/>
  <path d="M95.81,20.84 C95.24,21.73 95.32,25.06 95.32,25.06 C95.32,25.06 86.52,27.71 82.37,30.01 C78.22,32.31 73.61,35.8 72.27,41.36 C70.93,46.92 72.76,50.75 72.76,50.75 C72.76,50.75 70.03,49.49 67.79,48.71 C65.87,48.04 64.01,47.65 64.01,47.65 C64.01,47.65 63.85,43.29 63.5,41.95 C63.15,40.61 62.3,39.06 62.3,37.37 C62.3,35.68 63.31,32.65 64.65,30.8 C65.85,29.14 68.57,27.31 68.57,27.31 C68.57,27.31 68.43,27.11 67.35,27.07 C65.12,26.97 62.09,29.42 60.69,33.08 C59.28,36.74 59.92,42.27 59.99,44.69 C60.04,46.31 60.13,47.92 60.13,47.92 C60.13,47.92 57.31,48.28 55.24,48.85 C53.16,49.41 49.64,51.95 49.64,51.95 C49.64,51.95 48.51,51.15 47.74,49.96 C46.99,48.8 46.13,45.77 46.13,45.77 C46.13,45.77 46.61,51.82 47.74,54.84 C48.87,57.87 50.7,65.15 49.78,68.92 C48.51,74.13 44.81,76.97 40.44,77.04 C36.07,77.11 32.85,74.25 30.96,70.85 C29.55,68.3 27.84,62.13 27.84,62.13 C27.84,62.13 27.17,64.59 27.27,66.74 C27.37,68.89 28.4,74.02 32.67,77.44 C36.45,80.47 39.36,80.39 41.61,80.25 C45.76,79.99 50.88,75.86 52.07,70.65 C53.26,65.44 52.02,60.68 51.67,59.13 C51.32,57.58 50.54,54.84 50.54,54.84 C50.54,54.84 54.06,51.11 58.21,50.34 C62.36,49.57 69.47,51.89 72.57,53.86 C75.67,55.83 83.18,62.19 82.75,66.91 C82.32,71.63 79.32,74.86 78.13,76.39 C76.56,78.41 74.49,79.82 74.96,80.82 C75.63,82.25 77.71,80.68 79.25,79.48 C80.8,78.28 82.84,75.68 83.83,74.06 C84.82,72.44 85.66,69.72 85.66,69.72 C85.66,69.72 88.19,71.92 89.04,75.7 C89.88,79.48 88.62,84.48 90.24,84.2 C91.86,83.92 92.41,79.34 92.07,75.12 C91.73,70.98 89.18,68.21 87.78,66.77 C86.38,65.33 85.67,64 85.67,64 C85.67,64 83.1,57.46 79.94,54.84 C75.86,51.46 74.92,43.87 76.87,40.41 C79.41,35.9 82.98,33.41 87.08,32.53 C92.85,31.29 95.69,31.47 98.33,31.22 C100.64,31 101.73,28.38 101.38,25.49 C101.03,22.6 99.69,20.48 98.18,19.82 C96.96,19.28 96.16,20.3 95.81,20.84 Z" fill="#A62714"/>
  <path d="M39.32,79.34 C39.32,79.34 41.47,86.03 41.47,88.91 C41.47,91.79 41.22,94.86 39.32,96.44 C37.43,98.01 41.75,98.2 43.06,95.93 C44.79,92.92 44.29,90.81 44.29,90.81 L46.31,93.08 C46.31,93.08 48.41,98.98 51.38,102.49 C54.62,106.31 57.11,107.02 60.81,107.02 C64.69,107.02 65.1,105.31 63.53,105.19 C61.86,105.07 58.54,105.01 56.21,103.53 C53.89,102.05 52.76,100.38 51.23,97.87 C50.54,96.74 49.26,93.6 49.26,93.6 C49.26,93.6 52.44,95.01 53.62,93.6 C54.63,92.4 50.29,91.69 49.07,91.02 C47.01,89.89 45.88,88.06 44.92,86.24 C44.04,84.56 42.32,79.33 42.32,79.33 L39.32,79.33 Z" fill="#A62714"/>
  <path d="M81.68,74.83 C81.68,74.83 81.91,81.02 81.54,85.11 C81.16,89.19 80.37,93.18 78.72,95.81 C77.61,97.59 75.63,99.19 75.11,100.27 C74.55,101.41 75.72,102.14 76.94,101.44 C78.16,100.74 80.27,98.67 81.26,96.61 C81.78,95.53 83,92.53 83,92.53 C83,92.53 84.27,97.46 85.06,98.87 C85.86,100.28 87.08,103.19 88.34,102.62 C89.6,102.05 88.23,99.79 87.87,98.82 C87.42,97.62 86.37,94.78 85.81,92.39 C85.25,90 84.91,81.84 84.91,79.68 C84.91,77.52 84.63,72.63 84.21,70.85 C83.79,69.07 81.68,74.83 81.68,74.83 Z" fill="#A62714"/>
  <path d="M29.51,22.93 C30.07,24.12 31.98,23.78 34.31,22.08 C36.76,20.29 37.19,18.54 36.03,17.73 C34.94,16.96 32.86,17.65 31.44,18.74 C29.85,19.96 28.85,21.5 29.51,22.93 Z" fill="#F44236"/>
</svg>
